packages/tokens/icons/tip/size24Px.svg

<svg viewBox="0 0 24 24" fill="none" xmlns="http://www.w3.org/2000/svg" width="1em" height="1em"><circle cx="12" cy="12" r="9.5" stroke="currentColor" stroke-linecap="round"/><path d="M11.3684 17.4136C11.3684 17.7624 11.6512 18.0452 12 18.0452C12.3488 18.0452 12.6316 17.7624 12.6316 17.4136" stroke="currentColor" stroke-linecap="round" stroke-linejoin="round"/><path d="M10.8009 15.2199L10.8009 15.2199L10.7897 15.2023C10.7897 15.2023 10.7897 15.2023 10.7897 15.2023C10.5692 14.858 10.2714 14.5997 9.99589 14.3938C9.21081 13.8069 8.71057 12.8886 8.71057 11.8603C8.71057 10.1077 10.1713 8.66553 12 8.66553C13.8288 8.66553 15.2895 10.1077 15.2895 11.8603C15.2895 12.8886 14.7893 13.8069 14.0042 14.3938C13.7287 14.5997 13.4309 14.858 13.2104 15.2023L13.2104 15.2023L13.1991 15.22C12.9374 15.6288 12.4855 15.8761 12 15.8761C11.5146 15.8761 11.0627 15.6288 10.8009 15.2199Z" stroke="currentColor"/><path d="M6.63159 12.2705L6.00001 12.2705" stroke="currentColor" stroke-linecap="round"/><path d="M7.57898 8.16553L7.26318 7.84973" stroke="currentColor" stroke-linecap="round"/><path d="M18 12.2705L17.3684 12.2705" stroke="currentColor" stroke-linecap="round"/><path d="M16.7368 7.84973L16.421 8.16553" stroke="currentColor" stroke-linecap="round"/><path d="M12 5.99977L12 6.63135" stroke="currentColor" stroke-linecap="round"/></svg>

<svg xmlns="http://www.w3.org/2000/svg" fill="none" viewBox="0 0 24 24" width="1em" height="1em"><circle cx="12" cy="12" r="9.5" stroke="currentColor" stroke-linecap="round"/><path stroke="currentColor" stroke-linecap="round" stroke-linejoin="round" d="M11.368 17.414a.632.632 0 0 0 1.264 0"/><path stroke="currentColor" d="m10.8 15.22-.01-.018c-.22-.344-.519-.602-.794-.808A3.158 3.158 0 0 1 8.71 11.86c0-1.752 1.46-3.194 3.289-3.194 1.829 0 3.29 1.442 3.29 3.194 0 1.029-.5 1.947-1.286 2.534-.275.206-.573.464-.794.808l-.01.018a1.424 1.424 0 0 1-2.4 0Z"/><path stroke="currentColor" stroke-linecap="round" d="M6.632 12.27H6m1.579-4.104-.316-.316M18 12.27h-.632m-.631-4.42-.316.316M12 6v.631"/></svg>
